public/assets/icons/whatsAppWhite.svg

<svg width="22" height="22" viewBox="0 0 22 22" fill="none" xmlns="http://www.w3.org/2000/svg">
<g clip-path="url(#clip0_69_432)">
<path d="M0.0522461 22L1.59866 16.3506C0.644413 14.6969 0.142996 12.8223 0.143913 10.9001C0.146663 4.89042 5.03708 0 11.0458 0C13.9617 0.000916667 16.6989 1.13667 18.7577 3.19733C20.8157 5.258 21.9487 7.997 21.9477 10.9102C21.945 16.9208 17.0546 21.8112 11.0458 21.8112C9.22166 21.8103 7.42408 21.3528 5.83183 20.4838L0.0522461 22ZM6.0995 18.5103C7.63583 19.4223 9.1025 19.9687 11.0422 19.9696C16.0362 19.9696 20.1043 15.9051 20.1071 10.9083C20.1089 5.9015 16.06 1.8425 11.0495 1.84067C6.05183 1.84067 1.98641 5.90517 1.98458 10.901C1.98366 12.9406 2.58133 14.4677 3.58508 16.0655L2.66933 19.4095L6.0995 18.5103ZM16.5376 13.5016C16.4697 13.3879 16.2882 13.3201 16.0151 13.1835C15.7428 13.0469 14.4036 12.3878 14.1533 12.2971C13.904 12.2063 13.7225 12.1605 13.5401 12.4337C13.3586 12.7059 12.8361 13.3201 12.6775 13.5016C12.5189 13.6831 12.3594 13.706 12.0872 13.5694C11.8149 13.4328 10.9367 13.1459 9.89633 12.2173C9.08691 11.495 8.53966 10.6031 8.38108 10.3299C8.2225 10.0577 8.36458 9.91008 8.50025 9.77442C8.62308 9.6525 8.7725 9.45633 8.90908 9.29683C9.0475 9.13917 9.09241 9.0255 9.18408 8.84308C9.27483 8.66158 9.22991 8.50208 9.16116 8.3655C9.09241 8.22983 8.54791 6.88875 8.3215 6.34333C8.09966 5.81258 7.87508 5.88408 7.70825 5.87583L7.18575 5.86667C7.00425 5.86667 6.70908 5.9345 6.45975 6.20767C6.21041 6.48083 5.50641 7.139 5.50641 8.48008C5.50641 9.82117 6.48266 11.1164 6.61833 11.2979C6.75491 11.4794 8.53875 14.2313 11.2713 15.411C11.9212 15.6915 12.4291 15.8593 12.8242 15.9848C13.4768 16.192 14.0708 16.1627 14.5402 16.093C15.0636 16.0151 16.1517 15.4339 16.379 14.7977C16.6063 14.1607 16.6063 13.6153 16.5376 13.5016Z" fill="white"/>
</g>
<defs>
<clipPath id="clip0_69_432">
<rect width="22" height="22" fill="white"/>
</clipPath>
</defs>
</svg>

<svg xmlns="http://www.w3.org/2000/svg" width="22" height="22" fill="none"><g clip-path="url(#a)"><path fill="#fff" d="M.052 22 1.6 16.35A10.9 10.9 0 0 1 .144 10.9C.147 4.89 5.037 0 11.046 0c2.916 0 5.653 1.137 7.712 3.197a10.84 10.84 0 0 1 3.19 7.713c-.003 6.01-4.893 10.901-10.902 10.901-1.824 0-3.622-.458-5.214-1.327zM6.1 18.51c1.536.912 3.002 1.459 4.942 1.46 4.994 0 9.062-4.065 9.065-9.062a9.06 9.06 0 0 0-9.057-9.067c-4.998 0-9.064 4.064-9.065 9.06-.001 2.04.596 3.567 1.6 5.165L2.67 19.41zm10.438-5.008c-.068-.114-.25-.182-.523-.319-.272-.136-1.611-.795-1.862-.886-.249-.09-.43-.136-.613.137-.181.272-.704.886-.862 1.068-.16.181-.319.204-.59.067-.273-.136-1.151-.423-2.192-1.352-.81-.722-1.356-1.614-1.515-1.887s-.016-.42.12-.556c.122-.121.272-.318.408-.477.138-.158.183-.272.275-.454.09-.181.046-.34-.023-.477s-.613-1.477-.84-2.023c-.221-.53-.446-.459-.613-.467l-.522-.01a1 1 0 0 0-.726.342c-.25.273-.954.931-.954 2.272s.977 2.636 1.112 2.818c.137.181 1.92 2.933 4.653 4.113.65.28 1.158.448 1.553.574.653.207 1.247.178 1.716.108.524-.078 1.612-.66 1.839-1.295.227-.637.227-1.183.159-1.296"/></g><defs><clipPath id="a"><path fill="#fff" d="M0 0h22v22H0z"/></clipPath></defs></svg>
